X:1
T:DER TOD UND DAS MÄDCHEN
T:Ausgewählte Lieder von Franz Schubert für Pianoforte solo arrangirt
T:Franz Schubert
T:D.531
%%score { ( 1 3 ) | 2 }
L:1/8
Q:1/4=54
M:4/4
K:F
V:1 bass nm="Piano" snm="Pno."
V:3 bass 
V:2 bass 
V:1
!pp!"^Mässig" [F,A,D]4 [G,B,D]2 [E,G,D]2 | [F,A,D]4 [G,A,E]2 [A,F]2 | [G,A,E]4 [F,A,D]2 [E,A,^C]2 | %3
w: |||
 [F,A,D]4 [F,D]2 [E,G,D]2 | [F,A,D]4 [G,B,D]2 [E,G,D]2 | [F,A,D]4 [G,A,E]2 [A,F]2 | %6
w: |||
 [G,A,E]4 [F,A,D]2 [E,A,^C]2 | [F,A,D]4 z2 z[K:treble]"_dolce" !>!A | %8
w: |* Vor-|
[Q:1/4=57]"^Etwas geschwinder"!p!"^DAS MÄDCHEN\n.\n" (!>!B2 !>!A2) z2 !>!A>!>!A | %9
w: ü- ber, ach vor-|
 (!>!c2 !>!B2) z2 !>!B2 | !>!^c3 !>!c !>!c3 !>!c | !>!d6 (!>!d2 | !>!_e6 !>!A2 | !>!B4) z2 z !>!d | %14
w: ü- ber, geh,|wil- der Kno- chen-|mann! Ich|bin noch|jung, geh,|
 !>!d2 !>!G2 z2 !>!G2 | !>!c3 !>!c !>!B2 !>!A2 | !>!G4 z2 !>!B2 | !>!A3 !>!A !>!G2 !>!F2 | %18
w: Lie- ber, und|rüh- re mich nicht|an, und|rüh- re mich nicht|
 !>!E4 z4 |[K:bass]!pp!"_dimin." ([A,F]4 [G,E]2 [F,D]2 | [E,^C]4)!ppp! !fermata!z4 || %21
w: an.|||
!p![Q:1/4=54]"^Wie oben""^DER TOD." !>!D4 !>!D2 !>!D2 | !>!D4 z2 !>!D2 | !>!D3 !>!D !>!D2 !>!D2 | %24
w: Gieb dei- ne|Hand, du|schön und zart Ge-|
 !>!D4 z2 !>!D2 | !>!D6 !>!D2 | !>!D3 !>!D !>!D2 !>!E!>!F | !>!C8 | !>!A,4 z4 | !>!F4 !>!F2 !>!F2 | %30
w: bilde! bin|Freund, und|kom- me nicht zu- *|stra-|fen.|Sei gu- tes|
 !>!F6 !>!F2 | !>!F6 !>!F2 | !>!F6 !>!D2 | !>!D6 !>!D2 | !>!D3 !>!D !>!D2 !>!D2 | !>!A,8 | %36
w: Muths! ich|bin nicht|wild, sollst|sanft in|mein- nen Ar- men|schla-|
 !>!D4 x4 | [^F,A,D]4 [E,G,D]2 [D,F,D]2 | [E,G,D]4 [E,A,^C]4 | [^F,A,D]4 [G,=B,D]2 [E,G,D]2 | %40
w: fen.||||
 [^F,A,D]4 [E,G,D]2 [D,F,D]2 |[Q:1/4=44] [E,G,D]4[Q:1/4=34] [E,A,^C]4 | %42
w: ||
[Q:1/4=24] [D,^F,D]4 !fermata!z4 |] %43
w: |
V:2
 [D,,D,]4 [D,,D,]2 [D,,D,]2 | [D,,D,]4 [D,,D,]2 [D,,A,,]2 | [A,,,A,,]4 [A,,,A,,]2 [A,,,A,,]2 | %3
 [D,,A,,]4 [D,,D,]2 [D,,D,]2 | [D,,D,]4 [D,,D,]2 [D,,D,]2 | [D,,D,]4 [D,,D,]2 [D,,A,,]2 | %6
 [A,,,A,,]4 [A,,,A,,]2 [A,,,A,,]2 | [D,,A,,]4 z4 | [D,F,]2 z2 z [D,F,][D,F,][D,F,] | %9
 [D,F,]2 z2 z [D,F,][D,F,][D,F,] | [E,G,B,]2 z2 z [E,G,B,][E,G,B,][E,G,B,] | %11
 [F,A,]2 z2 z [F,A,][F,A,][F,A,] | [^F,A,C]2 z2 z [F,A,C][F,A,C][F,A,C] | %13
 [G,B,]2 z2 z [G,B,][G,B,][G,B,] | [E,G,B,]2 z2 z [E,G,B,][E,G,B,][E,G,B,] | [A,C]4 [G,C]2 [F,C]2 | %16
 [C,C]4 z2 (G,2 | F,4) E,2 D,2 | A,,4 z4 | (F,,4 G,,2 ^G,,2 | A,,4) !fermata!z4 || %21
 [D,,D,]4 [D,,D,]2 [D,,D,]2 | [G,,D,]4 [G,,D,]2 [G,,D,]2 | [B,,D,]4 [B,,D,]2 [B,,D,]2 | %24
 D,4 D,2 D,2 | [G,,E,]4 [A,,E,]2 [A,,E,]2 | [B,,E,]4 [=B,,F,]2 [B,,F,]2 | %27
 [C,F,]4 [C,E,]2 [C,,C,]2 | [F,,C,]4 [F,,C,]2 [F,,C,]2 | B,,4 F,,2 D,,2 | F,,4 F,,2 B,,2 | %31
 C,4 B,,2 F,,2 | B,,4 B,,2 A,,2 | ^G,,4 A,,2 A,,2 | =B,,4 A,,2 [^G,,D,]2 | A,,4 [A,,,A,,]4 | %36
 D,,4 [D,,D,]2 [D,,D,]2 | [D,,D,]4 [D,,D,]2 [D,,A,,]2 | [A,,,A,,]4 [A,,,A,,]4 | %39
 [D,,D,]4 [D,,D,]2 [D,,D,]2 | [D,,D,]4 [D,,A,,]2 [D,,A,,]2 | [A,,,A,,]4 [A,,,A,,]4 | %42
 [D,,A,,]4 !fermata!z4 |] %43
V:3
 x8 | x8 | x8 | x8 | x8 | x8 | x8 | x7[K:treble] x | z [A,F][A,F][A,F] [A,F]2 z2 | %9
 z [B,F][B,F][B,F] [B,F]2 z2 | z [^CB][CB][CB] [CB]2 z2 | z [DA][DA][DA] [DA]2 z2 | %12
 z [_EA][EA][EA] [EA]2 z2 | z [B,D][B,D][B,D] [B,D]2 z2 | z CCC C2 z2 | F4 E2 F2 | %16
 E4 x2 !>![^CE]2 | [DF]4 ^C2 D2 | ^C4 x4 |[K:bass] x8 | x8 || [F,A,]4 [F,A,]2 [F,A,]2 | %22
 [G,B,]4 [G,B,]2 [G,B,]2 | G,4 G,2 G,2 | [F,A,]4 [F,A,]2 [F,A,]2 | B,4 A,2 A,2 | G,4 G,2 G,2 | %27
 G,4 G,2 [E,G,]2 | F,4 [F,A,]2 [F,A,]2 | [B,D]4 [F,A,C]2 [F,B,]2 | [F,A,C]4 [F,A,C]2 [F,B,D]2 | %31
 [F,A,_E]4 [F,B,D]2 [F,A,C]2 | [F,B,D]4 [F,D]2 F,2 | [E,=B,]4 [E,A,]2 [E,A,]2 | %34
 [E,^G,]4 [E,A,]2 [E,=B,]2 | [D,^F,]4 [^C,G,]4 | [D,^F,A,]4 [G,=B,D]2 [E,G,D]2 | x8 | x8 | x8 | %40
 x8 | x8 | x8 |] %43

